X:117
T:Angeline the Baker -- Fred
M:2/2
L:1/8
K:D
dB|:"D"AFAc d3 A|BABc d2 dB|AFAc dB A2|"G"(AB2) (AB2) dB|
"D"AFAc dcde|fdec d2 de|"G"fafd edBd|1"D"A3 B A2 dB:|2"D"A3 B A2 fg||
"D"afge fdBd|fdec d2 fg|a2 (3faf) e2d2|"G"(AB2) (A Bd)fg|"D"afge fdBd|fd
ec d2 de|
fafd "G"edBd|1"D"AFAB defg:|2"D"AFAB d2 z2||
